src/assets/images/icons/linkedin.svg

<svg fill="none" height="64" viewBox="0 0 32 33" width="50" xmlns="http://www.w3.org/2000/svg" xmlns:xlink="http://www.w3.org/1999/xlink"><linearGradient id="a" gradientUnits="userSpaceOnUse" x1="31.7037" x2="-.296307" y1="32.8906" y2=".890625"><stop offset="0" stop-color="#fff" stop-opacity=".15"/><stop offset="1" stop-opacity="0"/></linearGradient><linearGradient id="b" gradientUnits="userSpaceOnUse" x1="34.1426" x2="13.4109" y1="1.50446" y2="22.9461"><stop offset="0" stop-color="#fff" stop-opacity="0"/><stop offset=".333333" stop-color="#fff" stop-opacity="0"/><stop offset=".666667" stop-color="#fff" stop-opacity="0"/><stop offset="1" stop-color="#fff" stop-opacity=".3"/></linearGradient><linearGradient id="c" gradientUnits="userSpaceOnUse" x1="24.7499" x2="11.8819" y1="10.1073" y2="24.9549"><stop offset="0" stop-color="#fff"/><stop offset="1" stop-color="#fff" stop-opacity=".6"/></linearGradient><linearGradient id="d" gradientUnits="userSpaceOnUse" x1="31.7037" x2="16" y1=".890625" y2="32.8906"><stop offset="0" stop-color="#fff" stop-opacity=".3"/><stop offset="1" stop-color="#fff" stop-opacity="0"/></linearGradient><clipPath id="e"><path d="m0 .890625h32v32h-32z"/></clipPath><g clip-path="url(#e)"><path d="m31.625 16.8906c0-8.62942-6.9956-15.62498-15.625-15.62498-8.62945 0-15.625 6.99556-15.625 15.62498 0 8.6295 6.99555 15.625 15.625 15.625 8.6294 0 15.625-6.9955 15.625-15.625z" fill="url(#a)"/><g stroke-width=".75"><path d="m12.875 14.3906v-.375h-.375-3-.375v.375 8.5.375h.375 3 .375v-.375zm5.625 8.875h.375v-.375-4.704c0-.4889.1577-.8209.3616-1.029.2069-.2111.4836-.318.7634-.318s.5565.1069.7634.318c.2039.2081.3616.5401.3616 1.029v4.704.375h.375 2.9998.375v-.375-5c0-1.4187-.3948-2.5206-1.1021-3.2702-.7089-.7513-1.6902-1.1048-2.7727-1.1048-.8333 0-1.4417.2526-1.896.603-.0817.063-.1579.1288-.229.1961v-.2991h-.375-3-.375v.375 8.5.375h.375zm-7.5-10c1.0355 0 1.875-.8395 1.875-1.875s-.8395-1.87498-1.875-1.87498c-1.03553 0-1.875.83948-1.875 1.87498s.83947 1.875 1.875 1.875z" fill="url(#b)" stroke="url(#c)"/><path d="m31.625 16.8906c0-8.62942-6.9956-15.62498-15.625-15.62498-8.62945 0-15.625 6.99556-15.625 15.62498 0 8.6295 6.99555 15.625 15.625 15.625 8.6294 0 15.625-6.9955 15.625-15.625z" stroke="url(#d)"/></g></g></svg>

<svg xmlns="http://www.w3.org/2000/svg" width="60" height="60" viewBox="0 0 32 33" fill="none" style="
    width: 50px;
    height: 64px;
">
              <g clip-path="url(#clip0_845_3110)">
                <path d="M31.625 16.8906C31.625 8.26118 24.6294 1.26562 16 1.26562C7.37055 1.26562 0.375 8.26118 0.375 16.8906C0.375 25.5201 7.37055 32.5156 16 32.5156C24.6294 32.5156 31.625 25.5201 31.625 16.8906Z" fill="url(#paint0_linear_845_3110)"></path>
                <path d="M12.875 14.3906V14.0156H12.5H9.5H9.125V14.3906V22.8906V23.2656H9.5H12.5H12.875V22.8906V14.3906ZM18.5 23.2656H18.875V22.8906V18.1866C18.875 17.6977 19.0327 17.3657 19.2366 17.1576C19.4435 16.9465 19.7202 16.8396 20 16.8396C20.2798 16.8396 20.5565 16.9465 20.7634 17.1576C20.9673 17.3657 21.125 17.6977 21.125 18.1866V22.8906V23.2656H21.5H24.4998H24.8748V22.8906V17.8906C24.8748 16.4719 24.48 15.37 23.7727 14.6204C23.0638 13.8691 22.0825 13.5156 21 13.5156C20.1667 13.5156 19.5583 13.7682 19.104 14.1186C19.0223 14.1816 18.9461 14.2474 18.875 14.3147V14.0156H18.5H15.5H15.125V14.3906V22.8906V23.2656H15.5H18.5ZM11 13.2656C12.0355 13.2656 12.875 12.4261 12.875 11.3906C12.875 10.3551 12.0355 9.51562 11 9.51562C9.96447 9.51562 9.125 10.3551 9.125 11.3906C9.125 12.4261 9.96447 13.2656 11 13.2656Z" fill="url(#paint1_linear_845_3110)" stroke="url(#paint2_linear_845_3110)" stroke-width="0.75"></path>
                <path d="M31.625 16.8906C31.625 8.26118 24.6294 1.26562 16 1.26562C7.37055 1.26562 0.375 8.26118 0.375 16.8906C0.375 25.5201 7.37055 32.5156 16 32.5156C24.6294 32.5156 31.625 25.5201 31.625 16.8906Z" stroke="url(#paint3_linear_845_3110)" stroke-width="0.75"></path>
              </g>
              <defs>
                <linearGradient id="paint0_linear_845_3110" x1="31.7037" y1="32.8906" x2="-0.296307" y2="0.890625" gradientUnits="userSpaceOnUse">
                  <stop stop-color="white" stop-opacity="0.15"></stop>
                  <stop offset="1" stop-opacity="0"></stop>
                </linearGradient>
                <linearGradient id="paint1_linear_845_3110" x1="34.1426" y1="1.50446" x2="13.4109" y2="22.9461" gradientUnits="userSpaceOnUse">
                  <stop stop-color="white" stop-opacity="0"></stop>
                  <stop offset="0.333333" stop-color="white" stop-opacity="0"></stop>
                  <stop offset="0.666667" stop-color="white" stop-opacity="0"></stop>
                  <stop offset="1" stop-color="white" stop-opacity="0.3"></stop>
                </linearGradient>
                <linearGradient id="paint2_linear_845_3110" x1="24.7499" y1="10.1073" x2="11.8819" y2="24.9549" gradientUnits="userSpaceOnUse">
                  <stop stop-color="white"></stop>
                  <stop offset="1" stop-color="white" stop-opacity="0.6"></stop>
                </linearGradient>
                <linearGradient id="paint3_linear_845_3110" x1="31.7037" y1="0.890625" x2="16" y2="32.8906" gradientUnits="userSpaceOnUse">
                  <stop stop-color="white" stop-opacity="0.3"></stop>
                  <stop offset="1" stop-color="white" stop-opacity="0"></stop>
                </linearGradient>
                <clipPath id="clip0_845_3110">
                  <rect width="32" height="32" fill="white" transform="translate(0 0.890625)"></rect>
                </clipPath>
              </defs>
            </svg>
